X: 23142
T: Le 125 ème De Sainte Louise
R: reel
M: 4/4
K: Gmajor
B,|:DEGA BdBA|G2g2 g3 B|ABAF DFAF|GABG d2Bd|
DEGA BdBA|G2g2 g3 B|ABAF DFAF|1 G2Bd g2 B,:|2 G2Bd g3 f||
|:edef gage|dedB GABG|ABAF DFAF|GABG d2Bd|
edef gage|dedB GABG|ABAF DFAF|1 G2Bd g3f:|2 G2Bd g3B,||

